common/resources/fonts/svg/arrow-prev.svg

<?xml version="1.0" encoding="UTF-8" standalone="no"?>
<svg width="1024px" height="1024px" viewBox="0 0 1024 1024" version="1.1" xmlns="http://www.w3.org/2000/svg" xmlns:xlink="http://www.w3.org/1999/xlink">
    <!-- Generator: Sketch 3.7.1 (28215) - http://www.bohemiancoding.com/sketch -->
    <title>arrow-prev</title>
    <desc>Created with Sketch.</desc>
    <defs></defs>
    <g id="Page-1" stroke="none" stroke-width="1" fill="none" fill-rule="evenodd">
        <g id="arrow-prev" fill="#000000">
            <path d="M409.086341,855.770903 L107.657601,554.342163 C84.1141329,530.800579 84.1141329,492.628397 107.657601,469.084928 L409.086341,167.656188 C432.62981,144.114604 470.800108,144.114604 494.343576,167.656188 C517.887045,191.199657 517.887045,229.369955 494.343576,252.913424 L295.82826,451.42874 L873.714252,451.42874 C907.00894,451.42874 934,478.419799 934,511.714488 C934,545.009176 907.00894,572.000235 873.714252,572.000235 L295.82826,572.000235 L494.343576,770.515552 C506.114368,782.286344 511.999765,797.715728 511.999765,813.143227 C511.999765,828.570727 506.114368,844.00011 494.343576,855.770903 C470.800108,879.314371 432.62981,879.314371 409.086341,855.770903 L409.086341,855.770903 Z" id="Shape"></path>
        </g>
    </g>
</svg>

<svg width="1024" height="1024" viewBox="0 0 1024 1024">
    <path d="M409.086 855.77L107.658 554.343c-23.544-23.541-23.544-61.714 0-85.257l301.428-301.429c23.544-23.541 61.714-23.541 85.258 0 23.543 23.544 23.543 61.714 0 85.257L295.828 451.43h577.886c33.295 0 60.286 26.99 60.286 60.285S907.009 572 873.714 572H295.828l198.516 198.516c11.77 11.77 17.656 27.2 17.656 42.627 0 15.428-5.886 30.857-17.656 42.628-23.544 23.543-61.714 23.543-85.258 0z" fill-rule="evenodd"/>
</svg>
